!!!COM: Palestrina, Giovanni Perluigi da
!!!OPR: De Beata Marie Virginis (III)
!!!OTL: Kyrie
**kern	**kern	**kern	**kern	**kern
*Ibass	*Itenor	*Itenor	*Icalto	*Icant
!Bassus	!Tenor 2	!Tenor 1	!Altus	!Cantus
*clefF4	*clefGv2	*clefGv2	*clefG2	*clefG2
*k[]	*k[]	*k[]	*k[]	*k[]
*G:mix	*G:mix	*G:mix	*G:mix	*G:mix
*M4/2	*M4/2	*M4/2	*M4/2	*M4/2
=1	=1	=1	=1	=1
0r	0r	0r	2r	1g
.	.	.	2g	.
.	.	.	2g	2b
.	.	.	2a	2cc
=2	=2	=2	=2	=2
0r	0r	0r	2f	1dd
.	.	.	2g	.
.	.	.	4c	1ee
.	.	.	4d	.
.	.	.	4e	.
.	.	.	4f	.
=3	=3	=3	=3	=3
2r	0r	1G	1.g	2dd
2G	.	.	.	2b
2G	.	2B	.	2dd
2A	.	2c	2e	[2cc
=4	=4	=4	=4	=4
2F	0r	1d	2a	2cc]
2G	.	.	2g	2b
4C	.	1e	[1g	1cc
4D	.	.	.	.
4E	.	.	.	.
4F	.	.	.	.
=5	=5	=5	=5	=5
1.G	2r	2d	0g]	2b
.	2G	2B	.	1dd
.	2B	2d	.	.
2E	2c	[2c	.	2ee
=6	=6	=6	=6	=6
1D	1d	2c]	1r	1ff
.	.	2B	.	.
1C	1e	1c	1g	2ee
.	.	.	.	[2gg
=7	=7	=7	=7	=7
0r	1d	2r	2a	2gg]
.	.	2d	2b	2ff
.	2c	2e	2cc	2ee
.	2d	2f#	[2b	[2dd
=8	=8	=8	=8	=8
1r	1e	1.g	2b]	2dd]
.	.	.	4a	2cc#
.	.	.	4g	.
1G	1d	.	1b	1dd
.	.	2d	.	.
=9	=9	=9	=9	=9
2A	0r	1f	2a	0r
2B	.	.	2d	.
1c	.	1e	2g	.
.	.	.	[2a	.
=10	=10	=10	=10	=10
2G	2r	1d	4a]	0r
.	.	.	4g	.
2B-	2d	.	2g	.
1A	2e	2r	1cc	.
.	2f#	2c	.	.
=11	=11	=11	=11	=11
1G	1g	2d	1b	1r
.	.	2e	.	.
1r	2d	4f	2a	2r
.	.	4g	.	.
.	2f	[2a	2d	2a
=12	=12	=12	=12	=12
0r	1e	4a]	2r	2b
.	.	4g	.	.
.	.	1g	2g	2cc#
.	1d	.	2a	1dd
.	.	[2f	2b	.
=13	=13	=13	=13	=13
0r	0r	4f]	2cc	2a
.	.	4e	.	.
.	.	4c	1a	2cc
.	.	4d	.	.
.	.	2.e	.	1b
.	.	.	[2g	.
.	.	4d	.	.
=14	=14	=14	=14	=14
1r	2r	2c	2g]	1a
.	1d	2d	2f#	.
1G	.	1B	4g	1g
.	.	.	4f	.
.	[2e	.	4e	.
.	.	.	4d	.
=15	=15	=15	=15	=15
1A	4e]	1r	1c	2e
.	4d	.	.	.
.	1c	.	.	2f#
1G	.	1d	1r	[1g
.	2B	.	.	.
=16	=16	=16	=16	=16
2E	2c	2e	1r	1g]
1G	4B	2d	.	.
.	4A	.	.	.
.	2G	2B	1d	1r
2F	2A	[2d	.	.
=17	=17	=17	=17	=17
1E	2B	2d]	1e	1r
.	2c	1c	.	.
1D	1F	.	1f	1dd
.	.	2B	.	.
=18	=18	=18	=18	=18
1C	1G	2.c	2e	1ee
.	.	.	1g	.
.	.	4B	.	.
1D	2r	1A	.	1dd
.	2d	.	2f#	.
=19	=19	=19	=19	=19
0r	2e	1G	[0g	2b
.	2d	.	.	1dd
.	2B	1r	.	.
.	4c	.	.	2cc
.	4d	.	.	.
=20	=20	=20	=20	=20
0r	4e	1r	1g]	1b
.	4f#	.	.	.
.	1g	.	.	.
.	.	1d	1r	2a
.	2f#	.	.	[2dd
=21	=21	=21	=21	=21
1r	1g	1e	1g	2dd]
.	.	.	.	2cc#
1D	1f#	1d	1a	1dd
=22	=22	=22	=22	=22
2E	2e	2B	2g	2r
2D	2A	1d	2f#	1dd
2BB	2B	.	2g	.
2C	2G	2c	2e	2ee
=23	=23	=23	=23	=23
0D	0d	1B	2f#	1dd
.	.	.	1g	.
.	.	1A	.	1dd
.	.	.	2f#	.
=24	=24	=24	=24	=24
[0G	[0d	[0G	[0g	[0b
=25	=25	=25	=25	=25
0G]	0d]	0G]	0g]	0b]
=26	=26	=26	=26	=26
0r	1d	0r	0r	0r
.	1e	.	.	.
=27	=27	=27	=27	=27
1G	1B	0r	0r	0r
2A	1c	.	.	.
2E	.	.	.	.
=28	=28	=28	=28	=28
2F	2.d	0r	0r	0r
1G	.	.	.	.
.	4c	.	.	.
.	2B	.	.	.
4F	4A	.	.	.
4E	4G	.	.	.
=29	=29	=29	=29	=29
2D	4A	0r	0r	1r
.	4B	.	.	.
2E	1c	.	.	.
2F	.	.	.	1dd
2G	2B	.	.	.
=30	=30	=30	=30	=30
2C	4c	0r	1r	1ee
.	4d	.	.	.
2c	4e	.	.	.
.	4c	.	.	.
2G	1d	.	1g	1b
2B	.	.	.	.
=31	=31	=31	=31	=31
1A	1e	1r	2a	1cc
.	.	.	2e	.
1D	1d	2r	1f#	2.dd
.	.	2d	.	.
.	.	.	.	4cc
=32	=32	=32	=32	=32
0r	2r	2e	2.g	1b
.	1g	2B	.	.
.	.	.	4f	.
.	.	2c	2e	2.a
.	2f	[2d	4d	.
.	.	.	4e	4g
=33	=33	=33	=33	=33
0r	2d	2d]	4f	4a
.	.	.	4g	4b
.	1e	4c	1a	1cc
.	.	4B	.	.
.	.	2A	.	.
.	2d	2B	[2g	2b
=34	=34	=34	=34	=34
1r	2r	2c	2g]	1a
.	1d	2d	2f#	.
1G	.	4G	1g	1b
.	.	4A	.	.
.	[2g	4B	.	.
.	.	4G	.	.
=35	=35	=35	=35	=35
1.c	2g]	1A	1r	0r
.	2f#	.	.	.
.	2g	1G	1d	.
2B	2d	.	.	.
=36	=36	=36	=36	=36
2c	2e	2r	1.g	0r
2G	1d	1G	.	.
2B-	.	.	.	.
2A	2c	[2c	2f#	.
=37	=37	=37	=37	=37
1G	1d	2c]	2g	0r
.	.	2B	2d	.
2A	1r	2c	2f	.
2E	.	2G	[2e	.
=38	=38	=38	=38	=38
2G	0r	2B-	4e]	1dd
.	.	.	4d	.
2F	.	2A	1d	.
1E	.	1G	.	[1gg
.	.	.	2c#	.
=39	=39	=39	=39	=39
1D	2r	1A	2d	2gg]
.	2d	.	2a	2ff#
1r	2e	2r	2g	2gg
.	[2f	[2d	[2a	2dd
=40	=40	=40	=40	=40
0r	4f]	2d]	4a]	2ff
.	8e	.	4b	.
.	8d	.	.	.
.	2c	1g	2cc	2ee
.	1d	.	2b	2.dd
.	.	2f#	2a	.
.	.	.	.	4cc
=41	=41	=41	=41	=41
1r	2G	2g	1g	4b
.	.	.	.	4g
.	2B	2d	.	1dd
1A	2A	2f	2.a	.
.	[2a	2e	.	2cc
.	.	.	4g	.
=42	=42	=42	=42	=42
1.d	4a]	1d	4f	2.dd
.	4g	.	4e	.
.	2.f	.	2d	.
.	.	.	.	8cc
.	.	.	.	8b
.	.	2r	2f	[1a
.	4d	.	.	.
2c#	2e	2A	2e	.
=43	=43	=43	=43	=43
2d	2f	2d	1r	1a]
2A	1e	1c	.	.
2c	.	.	1g	1r
2B	[2d	2d	.	.
=44	=44	=44	=44	=44
2A	2d]	2e	1a	1r
2F	1c	2f	.	.
1G	.	1d	1g	1dd
.	2B	.	.	.
=45	=45	=45	=45	=45
0r	2c	0r	2e	2ee
.	2d	.	2f	2dd
.	2e	.	2g	2b
.	2c	.	[2a	[2cc
=46	=46	=46	=46	=46
0r	2A	2r	2a]	2cc]
.	2B	2d	1g	2b
.	2c	2e	.	1a
.	2d	2d	2f#	.
=47	=47	=47	=47	=47
2r	1G	4B	1g	1g
.	.	4c	.	.
2G	.	4d	.	.
.	.	4B	.	.
2A	1r	2c	2r	2r
2G	.	2B	[2g	2dd
=48	=48	=48	=48	=48
2E	0r	2.c	2g]	2ee
1F	.	.	1a	2cc
.	.	4B	.	.
.	.	2A	.	2dd
2E	.	[2c	2g	2ee
=49	=49	=49	=49	=49
1D	1d	2c]	2f	1ff
.	.	2B	2d	.
1C	1e	2c	1g	2ee
.	.	2g	.	[2gg
=50	=50	=50	=50	=50
2r	1d	1a	1r	2gg]
2D	.	.	.	2ff
2E	2B	2g	2r	1ee
2C	[2c	2e	2g	.
=51	=51	=51	=51	=51
2F	2c]	4f	2a	0dd
.	.	4e	.	.
2G	2B	4d	1g	.
.	.	4c	.	.
1D	1A	1d	.	.
.	.	.	2f#	.
=52	=52	=52	=52	=52
[0G	[0G	[0d	[0g	[0b
=53	=53	=53	=53	=53
0G]	0G]	0d]	0g]	0b]
=54	=54	=54	=54	=54
0r	1d	0r	0r	0r
.	2d	.	.	.
.	2G	.	.	.
=55	=55	=55	=55	=55
1G	2.B	0r	0r	0r
.	4c	.	.	.
2G	2d	.	.	.
2C	2e	.	.	.
=56	=56	=56	=56	=56
2.G	2d	0r	0r	1dd
.	2B	.	.	.
4A	.	.	.	.
2B	2d	.	.	2dd
2c	2e	.	.	2g
=57	=57	=57	=57	=57
1G	2.d	0r	1g	2.b
.	4c	.	.	4cc
1r	2B	.	2g	2dd
.	2A	.	2c	[2ee
=58	=58	=58	=58	=58
0r	1G	2r	2.g	4ee]
.	.	.	.	4dd
.	.	2g	.	4b
.	.	.	4a	4cc
.	1r	2g	2b	2dd
.	.	2c	[2cc	2ee
=59	=59	=59	=59	=59
0r	0r	2.g	2cc]	2dd
.	.	.	2b	2.gg
.	.	4f	.	.
.	.	4e	2g	.
.	.	4d	.	4ff
.	.	4c	[2a	4ee
.	.	4B	.	4dd
=60	=60	=60	=60	=60
0r	1r	2A	2a]	4cc
.	.	.	.	4b
.	.	2e	1g	4b
.	.	.	.	8a
.	.	.	.	8g
.	2r	1d	.	1a
.	[2d	.	2f#	.
=61	=61	=61	=61	=61
2r	2d]	1G	1g	1b
2G	2e	.	.	.
2A	2f	2r	1r	1r
2B	[2g	2d	.	.
=62	=62	=62	=62	=62
1c	2g]	2.e	0g	0r
.	2c	.	.	.
.	.	4f	.	.
2G	1d	2g	.	.
2B-	.	2d	.	.
=63	=63	=63	=63	=63
2A	2c	2f	2a	0r
2G	1g	1e	2b	.
1A	.	.	1cc	.
.	2f#	4d	.	.
.	.	4c	.	.
=64	=64	=64	=64	=64
1G	1g	1d	1b	2r
.	.	.	.	2dd
1r	2r	1r	1a	2ee
.	2d	.	.	2ff
=65	=65	=65	=65	=65
0r	2e	2r	2g	2gg
.	2.f	1d	2.a	2dd
.	.	.	.	2ff
.	8e	.	4b	.
.	8d	.	.	.
.	2c	2e	2cc	[2ee
=66	=66	=66	=66	=66
0r	2d	2f	2a	4ee]
.	.	.	.	4dd
.	2G	2g	1b	1dd
.	[1g	1e	.	.
.	.	.	2g	2cc#
=67	=67	=67	=67	=67
1r	2g]	1d	1a	2dd
.	2f	.	.	2a
2r	[1e	1r	[1g	2b
[2C	.	.	.	[2cc
=68	=68	=68	=68	=68
4C]	1e]	2r	0g]	2cc]
4D	.	.	.	.
4E	.	2.G	.	4b
4F	.	.	.	4a
2G	2d	.	.	1b
.	.	4A	.	.
2E	2g	4B	.	.
.	.	4c	.	.
=69	=69	=69	=69	=69
2F	2f	2d	1r	2a
2G	2.e	2B	.	4g
.	.	.	.	4f
2.A	.	4c	2r	1e
.	4d	4d	.	.
.	4c	2e	2c	.
4G	4B	.	.	.
=70	=70	=70	=70	=70
2F	2A	2d	2d	0r
2E	2G	1c	2e	.
1D	1F	.	1f	.
.	.	2B	.	.
=71	=71	=71	=71	=71
0C	2.c	2.e	2g	1r
.	.	.	2.c	.
.	4d	4f	.	.
.	4e	2g	.	2r
.	4f	.	4d	.
.	2g	2c	4e	[2g
.	.	.	4f	.
=72	=72	=72	=72	=72
0r	2e	0r	2g	4g]
.	.	.	.	4a
.	2g	.	2e	4b
.	.	.	.	4cc
.	2d	.	2f	2dd
.	2e	.	2g	2b
=73	=73	=73	=73	=73
0r	2c	1r	2a	2cc
.	2B	.	2b	2dd
.	1A	2r	2.cc	2.ee
.	.	4A	.	.
.	.	4B	4b	4dd
=74	=74	=74	=74	=74
0r	0r	4c	2a	2cc
.	.	4d	.	.
.	.	2e	1g	2b
.	.	2c	.	1a
.	.	2d	2f#	.
=75	=75	=75	=75	=75
2.C	2r	2.e	2.g	1g
.	2.G	.	.	.
4D	.	4f	4f	.
4E	.	[1g	2e	2r
4F	4A	.	.	.
[2G	4B	.	4d	4g
.	4c	.	4c	4a
=76	=76	=76	=76	=76
2G]	2d	1g]	2.B	4b
.	.	.	.	4cc
2G	2B	.	.	2dd
.	.	.	4A	.
2C	2c	1g	1G	2ee
2G	2d	.	.	2b
=77	=77	=77	=77	=77
0C	2.e	2.g	2r	4cc
.	.	.	.	4dd
.	.	.	4c	4ee
.	4d	4f	4d	4ff
.	2c	1e	4e	2gg
.	.	.	4f#	.
.	2B	.	4g	2g
.	.	.	4e	.
=78	=78	=78	=78	=78
0D	2A	0d	2f#	0dd
.	2G	.	1g	.
.	1A	.	.	.
.	.	.	2f#	.
=79	=79	=79	=79	=79
[0G	[0G	[0d	[0g	[0b
=80	=80	=80	=80	=80
0G]	0G]	0d]	0g]	0b]
==	==	==	==	==
*-	*-	*-	*-	*-
!!!CDT: 1525/^1526/-1594/2/2
!!!OCY: Italia
!!!AGN: Mass (Paraphrase)
!!!AST: renaissance, vocal
!!!ASW: Gregorian Mass
!!!PWK: Masses, Book Mantuan I
!!!RNB: Cadence finals: D
!!!YOR: Le Opere Complete, v. 18, p. 162
!!!YOO: Rome, Italy: Fratelli Scalera
!!!END: 1992//
!!!EED: John Miller
!!!YEC: Copyright 2000, John Miller
!!!YEN: United States of America
!!!YEM: Rights to all derivative electronic formats reserved.
!!!YEM: Refer to licensing agreement for further details.
!!!YEM: This file must be accompanied by the licensing agreement.
!!!YEM: A copy of the licensing agreement may be found at http://www.music-cog.ohio-state.edu/HumdrumDatabases/Palestrina/license.txt
!!!EMD: converted to Humdrum by Bret Aarden
